static/img/kroki/b5f59d31a0147a960a9dde4b0813393d.svg

<?xml version="1.0" encoding="us-ascii" standalone="no"?><svg xmlns="http://www.w3.org/2000/svg" xmlns:xlink="http://www.w3.org/1999/xlink" contentStyleType="text/css" height="895px" preserveAspectRatio="none" style="width:385px;height:895px;" version="1.1" viewBox="0 0 385 895" width="385px" zoomAndPan="magnify"><defs/><g><!--class digitalocean_droplet_size--><g id="elem_digitalocean_droplet_size"><rect codeLine="23" fill="#3D176E" height="39.7891" id="digitalocean_droplet_size" rx="2.5" ry="2.5" style="stroke:#000D19;stroke-width:0.5;" width="251" x="44" y="849.73"/><ellipse cx="59" cy="869.6245" fill="#ADD1B2" rx="11" ry="11" style="stroke:#181818;stroke-width:1.0;"/><path d="M61.9688,875.2652 Q61.3906,875.562 60.75,875.7027 Q60.1094,875.8589 59.4063,875.8589 Q56.9063,875.8589 55.5781,874.2183 Q54.2656,872.562 54.2656,869.437 Q54.2656,866.312 55.5781,864.6558 Q56.9063,862.9995 59.4063,862.9995 Q60.1094,862.9995 60.75,863.1558 Q61.4063,863.312 61.9688,863.6089 L61.9688,866.3277 Q61.3438,865.7495 60.75,865.4839 Q60.1563,865.2027 59.5313,865.2027 Q58.1875,865.2027 57.5,866.2808 Q56.8125,867.3433 56.8125,869.437 Q56.8125,871.5308 57.5,872.6089 Q58.1875,873.6714 59.5313,873.6714 Q60.1563,873.6714 60.75,873.4058 Q61.3438,873.1245 61.9688,872.5464 L61.9688,875.2652 Z " fill="#000000"/><text fill="#D9B8FF" font-family="Helvetica" font-size="17" lengthAdjust="spacing" textLength="209" x="78" y="875.5098">digitalocean_droplet_size</text></g><!--class digitalocean_resource--><g id="elem_digitalocean_resource"><rect codeLine="26" fill="#3D176E" height="39.7891" id="digitalocean_resource" rx="2.5" ry="2.5" style="stroke:#000D19;stroke-width:0.5;" width="223" x="7" y="267.57"/><ellipse cx="22" cy="287.4645" fill="#ADD1B2" rx="11" ry="11" style="stroke:#181818;stroke-width:1.0;"/><path d="M24.9688,293.1052 Q24.3906,293.402 23.75,293.5427 Q23.1094,293.6989 22.4063,293.6989 Q19.9063,293.6989 18.5781,292.0583 Q17.2656,290.402 17.2656,287.277 Q17.2656,284.152 18.5781,282.4958 Q19.9063,280.8395 22.4063,280.8395 Q23.1094,280.8395 23.75,280.9958 Q24.4063,281.152 24.9688,281.4489 L24.9688,284.1677 Q24.3438,283.5895 23.75,283.3239 Q23.1563,283.0427 22.5313,283.0427 Q21.1875,283.0427 20.5,284.1208 Q19.8125,285.1833 19.8125,287.277 Q19.8125,289.3708 20.5,290.4489 Q21.1875,291.5114 22.5313,291.5114 Q23.1563,291.5114 23.75,291.2458 Q24.3438,290.9645 24.9688,290.3864 L24.9688,293.1052 Z " fill="#000000"/><text fill="#D9B8FF" font-family="Helvetica" font-size="17" lengthAdjust="spacing" textLength="181" x="41" y="293.3498">digitalocean_resource</text></g><!--class instance_type--><g id="elem_instance_type"><rect codeLine="29" fill="#3D176E" height="39.7891" id="instance_type" rx="2.5" ry="2.5" style="stroke:#000D19;stroke-width:0.5;" width="158" x="189.5" y="688.94"/><ellipse cx="204.5" cy="708.8345" fill="#ADD1B2" rx="11" ry="11" style="stroke:#181818;stroke-width:1.0;"/><path d="M207.4688,714.4752 Q206.8906,714.772 206.25,714.9127 Q205.6094,715.0689 204.9063,715.0689 Q202.4063,715.0689 201.0781,713.4283 Q199.7656,711.772 199.7656,708.647 Q199.7656,705.522 201.0781,703.8658 Q202.4063,702.2095 204.9063,702.2095 Q205.6094,702.2095 206.25,702.3658 Q206.9063,702.522 207.4688,702.8189 L207.4688,705.5377 Q206.8438,704.9595 206.25,704.6939 Q205.6563,704.4127 205.0313,704.4127 Q203.6875,704.4127 203,705.4908 Q202.3125,706.5533 202.3125,708.647 Q202.3125,710.7408 203,711.8189 Q203.6875,712.8814 205.0313,712.8814 Q205.6563,712.8814 206.25,712.6158 Q206.8438,712.3345 207.4688,711.7564 L207.4688,714.4752 Z " fill="#000000"/><text fill="#D9B8FF" font-family="Helvetica" font-size="17" lengthAdjust="spacing" textLength="116" x="223.5" y="714.7198">instance_type</text></g><!--class phantom_resource--><g id="elem_phantom_resource"><rect codeLine="32" fill="#3D176E" height="39.7891" id="phantom_resource" rx="2.5" ry="2.5" style="stroke:#000D19;stroke-width:0.5;" width="198" x="180.5" y="167.79"/><ellipse cx="195.5" cy="187.6845" fill="#ADD1B2" rx="11" ry="11" style="stroke:#181818;stroke-width:1.0;"/><path d="M198.4688,193.3252 Q197.8906,193.622 197.25,193.7627 Q196.6094,193.9189 195.9063,193.9189 Q193.4063,193.9189 192.0781,192.2783 Q190.7656,190.622 190.7656,187.497 Q190.7656,184.372 192.0781,182.7158 Q193.4063,181.0595 195.9063,181.0595 Q196.6094,181.0595 197.25,181.2158 Q197.9063,181.372 198.4688,181.6689 L198.4688,184.3877 Q197.8438,183.8095 197.25,183.5439 Q196.6563,183.2627 196.0313,183.2627 Q194.6875,183.2627 194,184.3408 Q193.3125,185.4033 193.3125,187.497 Q193.3125,189.5908 194,190.6689 Q194.6875,191.7314 196.0313,191.7314 Q196.6563,191.7314 197.25,191.4658 Q197.8438,191.1845 198.4688,190.6064 L198.4688,193.3252 Z " fill="#000000"/><text fill="#D9B8FF" font-family="Helvetica" font-size="17" lengthAdjust="spacing" textLength="156" x="214.5" y="193.5698">phantom_resource</text></g><!--class quota--><g id="elem_quota"><rect codeLine="35" fill="#3D176E" height="39.7891" id="quota" rx="2.5" ry="2.5" style="stroke:#000D19;stroke-width:0.5;" width="90" x="236.5" y="367.36"/><ellipse cx="251.5" cy="387.2545" fill="#ADD1B2" rx="11" ry="11" style="stroke:#181818;stroke-width:1.0;"/><path d="M254.4688,392.8952 Q253.8906,393.192 253.25,393.3327 Q252.6094,393.4889 251.9063,393.4889 Q249.4063,393.4889 248.0781,391.8483 Q246.7656,390.192 246.7656,387.067 Q246.7656,383.942 248.0781,382.2858 Q249.4063,380.6295 251.9063,380.6295 Q252.6094,380.6295 253.25,380.7858 Q253.9063,380.942 254.4688,381.2389 L254.4688,383.9577 Q253.8438,383.3795 253.25,383.1139 Q252.6563,382.8327 252.0313,382.8327 Q250.6875,382.8327 250,383.9108 Q249.3125,384.9733 249.3125,387.067 Q249.3125,389.1608 250,390.2389 Q250.6875,391.3014 252.0313,391.3014 Q252.6563,391.3014 253.25,391.0358 Q253.8438,390.7545 254.4688,390.1764 L254.4688,392.8952 Z " fill="#000000"/><text fill="#D9B8FF" font-family="Helvetica" font-size="17" lengthAdjust="spacing" textLength="48" x="270.5" y="393.1398">quota</text></g><!--class resource--><g id="elem_resource"><rect codeLine="38" fill="#3D176E" height="39.7891" id="resource" rx="2.5" ry="2.5" style="stroke:#000D19;stroke-width:0.5;" width="113" x="103" y="7"/><ellipse cx="118" cy="26.8945" fill="#ADD1B2" rx="11" ry="11" style="stroke:#181818;stroke-width:1.0;"/><path d="M120.9688,32.5352 Q120.3906,32.832 119.75,32.9727 Q119.1094,33.1289 118.4063,33.1289 Q115.9063,33.1289 114.5781,31.4883 Q113.2656,29.832 113.2656,26.707 Q113.2656,23.582 114.5781,21.9258 Q115.9063,20.2695 118.4063,20.2695 Q119.1094,20.2695 119.75,20.4258 Q120.4063,20.582 120.9688,20.8789 L120.9688,23.5977 Q120.3438,23.0195 119.75,22.7539 Q119.1563,22.4727 118.5313,22.4727 Q117.1875,22.4727 116.5,23.5508 Q115.8125,24.6133 115.8125,26.707 Q115.8125,28.8008 116.5,29.8789 Q117.1875,30.9414 118.5313,30.9414 Q119.1563,30.9414 119.75,30.6758 Q120.3438,30.3945 120.9688,29.8164 L120.9688,32.5352 Z " fill="#000000"/><text fill="#D9B8FF" font-family="Helvetica" font-size="17" lengthAdjust="spacing" textLength="71" x="137" y="32.7798">resource</text></g><!--class type--><g id="elem_type"><rect codeLine="41" fill="#3D176E" height="39.7891" id="type" rx="2.5" ry="2.5" style="stroke:#000D19;stroke-width:0.5;" width="79" x="233" y="528.15"/><ellipse cx="248" cy="548.0445" fill="#ADD1B2" rx="11" ry="11" style="stroke:#181818;stroke-width:1.0;"/><path d="M250.9688,553.6852 Q250.3906,553.982 249.75,554.1227 Q249.1094,554.2789 248.4063,554.2789 Q245.9063,554.2789 244.5781,552.6383 Q243.2656,550.982 243.2656,547.857 Q243.2656,544.732 244.5781,543.0758 Q245.9063,541.4195 248.4063,541.4195 Q249.1094,541.4195 249.75,541.5758 Q250.4063,541.732 250.9688,542.0289 L250.9688,544.7477 Q250.3438,544.1695 249.75,543.9039 Q249.1563,543.6227 248.5313,543.6227 Q247.1875,543.6227 246.5,544.7008 Q245.8125,545.7633 245.8125,547.857 Q245.8125,549.9508 246.5,551.0289 Q247.1875,552.0914 248.5313,552.0914 Q249.1563,552.0914 249.75,551.8258 Q250.3438,551.5445 250.9688,550.9664 L250.9688,553.6852 Z " fill="#000000"/><text fill="#D9B8FF" font-family="Helvetica" font-size="17" lengthAdjust="spacing" textLength="37" x="267" y="553.9298">type</text></g><!--reverse link digitalocean_resource to digitalocean_droplet_size--><g id="link_digitalocean_resource_digitalocean_droplet_size"><path codeLine="44" d="M123.8682,325.5444 C128.4682,358.2344 134.5,408.91 134.5,467.15 C134.5,467.15 134.5,467.15 134.5,709.84 C134.5,761.21 152.19,819.8 162.42,849.37 " fill="none" id="digitalocean_resource-backto-digitalocean_droplet_size" style="stroke:#FFAF37;stroke-width:2.0;"/><polygon fill="none" points="121.36,307.72,117.9267,326.3805,129.8096,324.7083,121.36,307.72" style="stroke:#FFAF37;stroke-width:2.0;"/></g><!--reverse link instance_type to digitalocean_droplet_size--><g id="link_instance_type_digitalocean_droplet_size"><path codeLine="45" d="M247.0362,744.2641 C228.0062,774.7841 200.54,818.84 181.48,849.4 " fill="none" id="instance_type-backto-digitalocean_droplet_size" style="stroke:#FFAF37;stroke-width:2.0;"/><polygon fill="none" points="256.56,728.99,241.9449,741.0895,252.1276,747.4387,256.56,728.99" style="stroke:#FFAF37;stroke-width:2.0;"/></g><!--reverse link resource to digitalocean_resource--><g id="link_resource_digitalocean_resource"><path codeLine="46" d="M153.6693,64.6776 C146.0993,112.3876 129.2,218.97 121.57,267.08 " fill="none" id="resource-backto-digitalocean_resource" style="stroke:#FFAF37;stroke-width:2.0;"/><polygon fill="none" points="156.49,46.9,147.7434,63.7374,159.5952,65.6179,156.49,46.9" style="stroke:#FFAF37;stroke-width:2.0;"/></g><!--reverse link type to instance_type--><g id="link_type_instance_type"><path codeLine="47" d="M271.566,586.1943 C270.796,616.7143 269.75,658.05 268.98,688.61 " fill="none" id="type-backto-instance_type" style="stroke:#FFAF37;stroke-width:2.0;"/><polygon fill="none" points="272.02,568.2,265.5679,586.0429,277.5641,586.3456,272.02,568.2" style="stroke:#FFAF37;stroke-width:2.0;"/></g><!--reverse link resource to phantom_resource--><g id="link_resource_phantom_resource"><path codeLine="48" d="M184.8241,61.3992 C207.8941,91.9192 241.88,136.9 264.97,167.46 " fill="none" id="resource-backto-phantom_resource" style="stroke:#FFAF37;stroke-width:2.0;"/><polygon fill="none" points="173.97,47.04,180.0377,65.0173,189.6105,57.7812,173.97,47.04" style="stroke:#FFAF37;stroke-width:2.0;"/></g><!--reverse link phantom_resource to quota--><g id="link_phantom_resource_quota"><path codeLine="49" d="M279.881,225.9791 C280.261,263.7591 280.92,329.04 281.3,366.88 " fill="none" id="phantom_resource-backto-quota" style="stroke:#FFAF37;stroke-width:2.0;"/><polygon fill="none" points="279.7,207.98,273.8813,226.0394,285.8807,225.9187,279.7,207.98" style="stroke:#FFAF37;stroke-width:2.0;"/></g><!--reverse link quota to type--><g id="link_quota_type"><path codeLine="50" d="M279.3913,425.3812 C277.6613,455.9012 275.32,497.26 273.59,527.83 " fill="none" id="quota-backto-type" style="stroke:#FFAF37;stroke-width:2.0;"/><polygon fill="none" points="280.41,407.41,273.4009,425.0416,285.3817,425.7207,280.41,407.41" style="stroke:#FFAF37;stroke-width:2.0;"/></g><!--SRC=[XP1FJy904CNl-oasuKm24WKIBqXYz4ACU2T3TvPkQ7Vhx5I2VxwxbefkjmMkytxpvirBZKA9US5xcME-HlB2RuqjW22NCoAtcxlCaUnf3NeqZiLxP_aYi80SvGDcRyWcWPXuIKsojUYzl0gaEqYs6tAbLRKz4rZ_8w7bW9fduFsCcSowP0p2gEbwedLCngQzaHgERx25EL98lyXWC533QOnSF7NsxpzYQTvH3iFI5ewn5RDrua2TJLaHGSZMeqVzPCOdKChOZRmEPizr9h98ZVao1ULs5QqXy-4PpqZeU5_WlFKLJYTAZplXnrEmIAhgf38Rmv2v1C6k5BaYGrxvgimF8Rww84BlIaeQWB6UmIQugaw6Gf62PPTtBhsMZY4ST47_XjqXRZ_x_VxfBqGpsINwdErH4u5JmptUZdyNhJ9gxj23gDke9mUtRm00]--></g></svg>

<svg xmlns="http://www.w3.org/2000/svg" width="385" height="895" viewBox="0 0 385 895"><rect width="251" height="39.789" x="44" y="849.73" fill="#3D176E" rx="2.5" ry="2.5" style="stroke:#000d19;stroke-width:.5"/><circle cx="59" cy="869.625" r="11" fill="#ADD1B2" style="stroke:#181818;stroke-width:1"/><path d="M61.969 875.265q-.578.297-1.219.438-.64.156-1.344.156-2.5 0-3.828-1.64-1.312-1.657-1.312-4.782t1.312-4.781Q56.906 863 59.406 863q.703 0 1.344.156.656.156 1.219.453v2.719q-.625-.578-1.219-.844-.594-.281-1.219-.281-1.343 0-2.031 1.078-.687 1.062-.687 3.156t.687 3.172q.688 1.062 2.031 1.062.625 0 1.219-.265.594-.281 1.219-.86z"/><text x="78" y="875.51" fill="#D9B8FF" font-family="Helvetica" font-size="17" textLength="209">digitalocean_droplet_size</text><rect width="223" height="39.789" x="7" y="267.57" fill="#3D176E" rx="2.5" ry="2.5" style="stroke:#000d19;stroke-width:.5"/><circle cx="22" cy="287.464" r="11" fill="#ADD1B2" style="stroke:#181818;stroke-width:1"/><path d="M24.969 293.105q-.578.297-1.219.438-.64.156-1.344.156-2.5 0-3.828-1.64-1.312-1.657-1.312-4.782t1.312-4.781q1.328-1.656 3.828-1.656.703 0 1.344.156.656.156 1.219.453v2.719q-.625-.579-1.219-.844-.594-.281-1.219-.281-1.343 0-2.031 1.078-.687 1.062-.687 3.156t.687 3.172q.688 1.062 2.031 1.062.625 0 1.219-.265.594-.281 1.219-.86z"/><text x="41" y="293.35" fill="#D9B8FF" font-family="Helvetica" font-size="17" textLength="181">digitalocean_resource</text><rect width="158" height="39.789" x="189.5" y="688.94" fill="#3D176E" rx="2.5" ry="2.5" style="stroke:#000d19;stroke-width:.5"/><circle cx="204.5" cy="708.835" r="11" fill="#ADD1B2" style="stroke:#181818;stroke-width:1"/><path d="M207.469 714.475q-.578.297-1.219.438-.64.156-1.344.156-2.5 0-3.828-1.64-1.312-1.657-1.312-4.782t1.312-4.781q1.328-1.656 3.828-1.656.703 0 1.344.156.656.156 1.219.453v2.719q-.625-.578-1.219-.844-.594-.281-1.219-.281-1.344 0-2.031 1.078-.687 1.062-.687 3.156t.687 3.172q.688 1.062 2.031 1.062.625 0 1.219-.265.594-.281 1.219-.86z"/><text x="223.5" y="714.72" fill="#D9B8FF" font-family="Helvetica" font-size="17" textLength="116">instance_type</text><rect width="198" height="39.789" x="180.5" y="167.79" fill="#3D176E" rx="2.5" ry="2.5" style="stroke:#000d19;stroke-width:.5"/><circle cx="195.5" cy="187.685" r="11" fill="#ADD1B2" style="stroke:#181818;stroke-width:1"/><path d="M198.469 193.325q-.578.297-1.219.438-.64.156-1.344.156-2.5 0-3.828-1.64-1.312-1.657-1.312-4.782t1.312-4.781q1.328-1.656 3.828-1.656.703 0 1.344.156.656.156 1.219.453v2.719q-.625-.578-1.219-.844-.594-.281-1.219-.281-1.344 0-2.031 1.078-.687 1.062-.687 3.156t.687 3.172q.688 1.062 2.031 1.062.625 0 1.219-.265.594-.281 1.219-.86z"/><text x="214.5" y="193.57" fill="#D9B8FF" font-family="Helvetica" font-size="17" textLength="156">phantom_resource</text><rect width="90" height="39.789" x="236.5" y="367.36" fill="#3D176E" rx="2.5" ry="2.5" style="stroke:#000d19;stroke-width:.5"/><circle cx="251.5" cy="387.255" r="11" fill="#ADD1B2" style="stroke:#181818;stroke-width:1"/><path d="M254.469 392.895q-.578.297-1.219.438-.64.156-1.344.156-2.5 0-3.828-1.64-1.312-1.657-1.312-4.782t1.312-4.781q1.328-1.656 3.828-1.656.703 0 1.344.156.656.156 1.219.453v2.719q-.625-.579-1.219-.844-.594-.281-1.219-.281-1.344 0-2.031 1.078-.687 1.062-.687 3.156t.687 3.172q.688 1.062 2.031 1.062.625 0 1.219-.265.594-.281 1.219-.86z"/><text x="270.5" y="393.14" fill="#D9B8FF" font-family="Helvetica" font-size="17" textLength="48">quota</text><rect width="113" height="39.789" x="103" y="7" fill="#3D176E" rx="2.5" ry="2.5" style="stroke:#000d19;stroke-width:.5"/><circle cx="118" cy="26.895" r="11" fill="#ADD1B2" style="stroke:#181818;stroke-width:1"/><path d="M120.969 32.535q-.578.297-1.219.438-.64.156-1.344.156-2.5 0-3.828-1.64-1.312-1.657-1.312-4.782t1.312-4.781q1.328-1.656 3.828-1.656.703 0 1.344.156.656.156 1.219.453v2.719q-.625-.578-1.219-.844-.594-.281-1.219-.281-1.344 0-2.031 1.078-.687 1.062-.687 3.156t.687 3.172q.688 1.062 2.031 1.062.625 0 1.219-.265.594-.281 1.219-.86z"/><text x="137" y="32.78" fill="#D9B8FF" font-family="Helvetica" font-size="17" textLength="71">resource</text><rect width="79" height="39.789" x="233" y="528.15" fill="#3D176E" rx="2.5" ry="2.5" style="stroke:#000d19;stroke-width:.5"/><circle cx="248" cy="548.044" r="11" fill="#ADD1B2" style="stroke:#181818;stroke-width:1"/><path d="M250.969 553.685q-.578.297-1.219.438-.64.156-1.344.156-2.5 0-3.828-1.64-1.312-1.657-1.312-4.782t1.312-4.781q1.328-1.657 3.828-1.657.703 0 1.344.157.656.156 1.219.453v2.719q-.625-.579-1.219-.844-.594-.281-1.219-.281-1.344 0-2.031 1.078-.687 1.062-.687 3.156t.687 3.172q.688 1.062 2.031 1.062.625 0 1.219-.265.594-.282 1.219-.86z"/><text x="267" y="553.93" fill="#D9B8FF" font-family="Helvetica" font-size="17" textLength="37">type</text><g fill="none"><path d="M123.868 325.544c4.6 32.69 10.632 83.366 10.632 141.606v242.69c0 51.37 17.69 109.96 27.92 139.53" style="stroke:#ffaf37;stroke-width:2"/><path d="m121.36 307.72-3.433 18.66 11.883-1.672z" style="stroke:#ffaf37;stroke-width:2"/></g><g fill="none"><path d="M247.036 744.264c-19.03 30.52-46.496 74.576-65.556 105.136" style="stroke:#ffaf37;stroke-width:2"/><path d="m256.56 728.99-14.615 12.1 10.183 6.349z" style="stroke:#ffaf37;stroke-width:2"/></g><path fill="none" d="M153.67 64.678c-7.57 47.71-24.47 154.292-32.1 202.402M156.49 46.9l-8.747 16.837 11.852 1.88z" style="stroke:#ffaf37;stroke-width:2"/><g fill="none"><path d="M271.566 586.194c-.77 30.52-1.816 71.856-2.586 102.416" style="stroke:#ffaf37;stroke-width:2"/><path d="m272.02 568.2-6.452 17.843 11.996.303z" style="stroke:#ffaf37;stroke-width:2"/></g><path fill="none" d="M184.824 61.4c23.07 30.52 57.056 75.5 80.146 106.06m-91-120.42 6.068 17.977 9.572-7.236zm105.911 178.94c.38 37.78 1.039 103.06 1.419 140.9m-1.6-158.9-5.819 18.06 12-.121z" style="stroke:#ffaf37;stroke-width:2"/><g fill="none"><path d="M279.391 425.381c-1.73 30.52-4.071 71.879-5.801 102.449" style="stroke:#ffaf37;stroke-width:2"/><path d="m280.41 407.41-7.01 17.632 11.982.679z" style="stroke:#ffaf37;stroke-width:2"/></g></svg>
